build/assets/latest-news-icon.svg

<svg viewBox="0 0 50 50" xmlns="http://www.w3.org/2000/svg" fill-rule="evenodd" clip-rule="evenodd" stroke-linejoin="round" stroke-miterlimit="1.414"><path d="M38.462 47.23H9.615s-7.692.092-7.692-7.746V3.769" fill="none" stroke-width="2" stroke="#000"/><path d="M48.077 39.539c0 7.695-6.692 7.691-6.692 7.691s-7.692-.027-7.692-7.746V3.769H1.923v35.715c0 7.838 7.692 7.746 7.692 7.746h30.77" fill="none" stroke-width="2" stroke="#fff"/><path d="M40.385 38.615v-24.23s.09-3.846 3.846-3.846c3.756 0 3.847 3.9 3.847 3.9v25.1" fill="none" stroke-width="2" stroke-linecap="round" stroke="#fff"/><path d="M44.23 10.495h-9.474" fill="none" stroke-width="2" stroke="#fff"/><path d="M7.692 28h6.77m-6.77-4h6.77m-6.77 8h6.77m-6.77 4h6.77m-6.77 4h6.77m4.768-12h7.693m-7.693-4h7.693M7.23 16h19.693M7.23 12h19.693M19.23 31.77h7.693m-7.693 4h7.693m-7.693 3.769h7.693" fill="none" stroke-width="2" stroke-linecap="round" stroke="#fff"/></svg>

<svg viewBox="0 0 50 50" xmlns="http://www.w3.org/2000/svg" fill-rule="evenodd" clip-rule="evenodd" stroke-linejoin="round" stroke-miterlimit="1.414"><path d="M38.462 47.23H9.615s-7.692.092-7.692-7.746V3.769" fill="none" stroke-width="2" stroke="#000"/><path d="M48.077 39.539c0 7.695-6.692 7.691-6.692 7.691s-7.692-.027-7.692-7.746V3.769H1.923v35.715c0 7.838 7.692 7.746 7.692 7.746h30.77" fill="none" stroke-width="2" stroke="#fff"/><path d="M40.385 38.615v-24.23s.09-3.846 3.846-3.846c3.756 0 3.847 3.9 3.847 3.9v25.1" fill="none" stroke-width="2" stroke-linecap="round" stroke="#fff"/><path d="M44.23 10.495h-9.474" fill="none" stroke-width="2" stroke="#fff"/><path d="M7.692 28h6.77M7.692 24h6.77M7.692 32h6.77M7.692 36h6.77M7.692 40h6.77M19.23 28h7.693M19.23 24h7.693M7.23 16h19.693M7.23 12h19.693M19.23 31.77h7.693M19.23 35.77h7.693M19.23 39.539h7.693" fill="none" stroke-width="2" stroke-linecap="round" stroke="#fff"/></svg>
